build/Karasa-Jaga/scalable/apps/gthumb-symbolic.svg

<svg height="16" width="16" xmlns="http://www.w3.org/2000/svg"><g fill="#bebebe"><path d="m13.744141 1.1367188-13.21484412 1.1875c-.33102963.0294829-.55298559.290865-.52734375.5878906l.54492187 6.2050781v-5.4003906a.96062604.96062604 0 0 0 0-.0019531c.00118983-.8201711.736227-1.4989902 1.5351562-1.5l12.4042968-.0234376-.050781-.5742187c-.027467-.2968653-.360421-.5104196-.691406-.4804687z"/><g transform="translate(-.000001)"><path d="m2.0847011 3.1756305c-.3323397.00042-.575794.24213-.5762265.54026v11.7441295c.000243.29889.264545.54071.5977252.53982l13.2679002.00016c.333179-.00042.626656-.26956.6259-.56845v-11.7441295c-.0014-.29813-.31506-.53877-.647397-.53788zm.5385062.82439h12.2620597l.027211 10.9999995h-12.2620601z"/><path d="m3.73794 5.0000216 10.032594.0000032.000017 6.9999982-10.0325945-.000003z"/><path d="m13.770534 13.000021h-10.032594v.999999h10.032594z"/></g></g></svg>

<?xml version="1.0" encoding="UTF-8" standalone="no"?>
<!-- Created with Inkscape (http://www.inkscape.org/) -->

<svg
   xmlns:dc="http://purl.org/dc/elements/1.1/"
   xmlns:cc="http://creativecommons.org/ns#"
   xmlns:rdf="http://www.w3.org/1999/02/22-rdf-syntax-ns#"
   xmlns:svg="http://www.w3.org/2000/svg"
   xmlns="http://www.w3.org/2000/svg"
   xmlns:sodipodi="http://sodipodi.sourceforge.net/DTD/sodipodi-0.dtd"
   xmlns:inkscape="http://www.inkscape.org/namespaces/inkscape"
   id="svg3085"
   version="1.1"
   inkscape:version="0.92.2 (unknown)"
   width="16"
   height="16"
   sodipodi:docname="gthumb-symbolic.svg">
  <metadata
     id="metadata3091">
    <rdf:RDF>
      <cc:Work
         rdf:about="">
        <dc:format>image/svg+xml</dc:format>
        <dc:type
           rdf:resource="http://purl.org/dc/dcmitype/StillImage" />
        <dc:title></dc:title>
      </cc:Work>
    </rdf:RDF>
  </metadata>
  <defs
     id="defs3089">
    <filter
       color-interpolation-filters="sRGB"
       id="filter7554">
      <feBlend
         mode="darken"
         in2="BackgroundImage"
         id="feBlend7556" />
    </filter>
  </defs>
  <sodipodi:namedview
     pagecolor="#ffffff"
     bordercolor="#666666"
     borderopacity="1"
     objecttolerance="10"
     gridtolerance="10"
     guidetolerance="10"
     inkscape:pageopacity="0"
     inkscape:pageshadow="2"
     inkscape:window-width="1366"
     inkscape:window-height="716"
     id="namedview3087"
     showgrid="false"
     inkscape:zoom="10.429825"
     inkscape:cx="17.623403"
     inkscape:cy="4.637942"
     inkscape:window-x="0"
     inkscape:window-y="27"
     inkscape:window-maximized="1"
     inkscape:current-layer="svg3085" />
  <path
     style="color:#000000;font-style:normal;font-variant:normal;font-weight:normal;font-stretch:normal;font-size:medium;line-height:normal;font-family:sans-serif;text-indent:0;text-align:start;text-decoration:none;text-decoration-line:none;text-decoration-style:solid;text-decoration-color:#000000;letter-spacing:normal;word-spacing:normal;text-transform:none;writing-mode:lr-tb;direction:ltr;baseline-shift:baseline;text-anchor:start;white-space:normal;clip-rule:nonzero;display:inline;overflow:visible;visibility:visible;opacity:1;isolation:auto;mix-blend-mode:normal;color-interpolation:sRGB;color-interpolation-filters:linearRGB;solid-color:#000000;solid-opacity:1;fill:#bebebe;fill-opacity:1;fill-rule:nonzero;stroke:none;stroke-width:1.14140594;stroke-linecap:round;stroke-linejoin:round;stroke-miterlimit:4;stroke-dasharray:none;stroke-dashoffset:0;stroke-opacity:1;color-rendering:auto;image-rendering:auto;shape-rendering:auto;text-rendering:auto;enable-background:accumulate"
     d="M 13.744141 1.1367188 L 0.52929688 2.3242188 C 0.19826725 2.3537017 -0.023688705 2.6150838 0.001953125 2.9121094 L 0.546875 9.1171875 L 0.546875 3.7167969 A 0.96062604 0.96062604 0 0 0 0.546875 3.7148438 C 0.54806483 2.8946727 1.283102 2.2158536 2.0820312 2.2148438 L 14.486328 2.1914062 L 14.435547 1.6171875 C 14.40808 1.3203222 14.075126 1.1067679 13.744141 1.1367188 z "
     id="path1137" />
  <g
     id="g1154"
     transform="translate(-1.4573856e-6)">
    <path
       sodipodi:nodetypes="cccccccccccccc"
       inkscape:connector-curvature="0"
       id="rect6630"
       d="m 2.0847011,3.1756305 c -0.3323397,4.2e-4 -0.575794,0.24213 -0.5762265,0.54026 V 15.46002 c 2.43e-4,0.29889 0.264545,0.54071 0.5977252,0.53982 L 15.3741,16 C 15.707279,15.99958 16.000756,15.73044 16,15.43155 V 3.6874205 c -0.0014,-0.29813 -0.31506,-0.53877 -0.647397,-0.53788 z m 0.5385062,0.82439 H 14.885267 L 14.912478,15.00002 H 2.6504179 Z"
       style="color:#000000;font-style:normal;font-variant:normal;font-weight:normal;font-stretch:normal;font-size:medium;line-height:normal;font-family:sans-serif;text-indent:0;text-align:start;text-decoration:none;text-decoration-line:none;text-decoration-style:solid;text-decoration-color:#000000;letter-spacing:normal;word-spacing:normal;text-transform:none;writing-mode:lr-tb;direction:ltr;baseline-shift:baseline;text-anchor:start;white-space:normal;clip-rule:nonzero;display:inline;overflow:visible;visibility:visible;opacity:1;isolation:auto;mix-blend-mode:normal;color-interpolation:sRGB;color-interpolation-filters:linearRGB;solid-color:#000000;solid-opacity:1;fill:#bebebe;fill-opacity:1;fill-rule:nonzero;stroke:none;stroke-width:1.14140594;stroke-linecap:round;stroke-linejoin:round;stroke-miterlimit:4;stroke-dasharray:none;stroke-dashoffset:0;stroke-opacity:1;color-rendering:auto;image-rendering:auto;shape-rendering:auto;text-rendering:auto;enable-background:accumulate" />
    <path
       sodipodi:nodetypes="ccccc"
       inkscape:connector-curvature="0"
       id="rect6632"
       d="m 3.73794,5.0000216 10.032594,3.2e-6 1.7e-5,6.9999982 -10.0325945,-3e-6 z"
       style="display:inline;fill:#bebebe;fill-opacity:1;fill-rule:nonzero;stroke:none;stroke-width:1.05580735" />
    <path
       sodipodi:nodetypes="ccccc"
       inkscape:connector-curvature="0"
       id="path5466"
       d="M 13.770534,13.000021 H 3.73794 v 0.999999 h 10.032594 z"
       style="color:#000000;font-style:normal;font-variant:normal;font-weight:normal;font-stretch:normal;font-size:medium;line-height:normal;font-family:sans-serif;text-indent:0;text-align:start;text-decoration:none;text-decoration-line:none;text-decoration-style:solid;text-decoration-color:#000000;letter-spacing:normal;word-spacing:normal;text-transform:none;writing-mode:lr-tb;direction:ltr;baseline-shift:baseline;text-anchor:start;white-space:normal;clip-rule:nonzero;display:inline;overflow:visible;visibility:visible;opacity:1;isolation:auto;mix-blend-mode:normal;color-interpolation:sRGB;color-interpolation-filters:linearRGB;solid-color:#000000;solid-opacity:1;fill:#bebebe;fill-opacity:1;fill-rule:nonzero;stroke:none;stroke-width:1.05580902px;stroke-linecap:square;stroke-linejoin:miter;stroke-miterlimit:4;stroke-dasharray:none;stroke-dashoffset:0;stroke-opacity:1;color-rendering:auto;image-rendering:auto;shape-rendering:auto;text-rendering:auto;enable-background:accumulate" />
  </g>
</svg>
